;FLAVOR:Marlin
;TIME:27575
;Filament used: 27.347m
;Layer height: 0.2
;MINX:55.062
;MINY:29.313
;MINZ:0.3
;MAXX:193.609
;MAXY:189.863
;MAXZ:31.9
;Generated with Cura_SteamEngine 5.4.0
M140 S60
M105
M190 S60
M104 S190
M105
M109 S190
M82 ;absolute extrusion mode
M140 S[first_layer_bed_temperature]; Heat bed
M104 S[first_layer_temperature
            ]; Heat extruder
G21 ;metric values
G90 ;absolute positioning
M82 ;set extruder to absolute mode
G28 ; Home all axes
G92 E0 ; Reset Extruder
M420 S1 ; Enable Bed Levelling Mesh
M190 S[first_layer_bed_temperature
            ]; Wait for bed to get up to temperature
M109 S[first_layer_temperature
            ]; Wait for extruder to get up to temperature
G1 Z2.0 F3000 ; Move Z Axis up little to prevent scratching of Heat Bed
G1 X2 Y20 Z0.3 F5000.0 ; Move to start position
G1 X2 Y200.0 Z0.3 F1500.0 E15 ; Draw the first line
G1 X2.4 Y200.0 Z0.3 F5000.0 ; Move to side a little
G1 X2.4 Y20 Z0.3 F1500.0 E30 ; Draw the second line
G92 E0 ; Reset Extruder
G1 Z2.0 F3000 ; Move Z Axis up little to prevent scratching of Heat Bed
G1 F2400 E-1
G1 X5 Y20 Z0.3 F5000.0 ; Move over to prevent blob squish
G92 E0
G92 E0
G1 F1500 E-6.5
;LAYER_COUNT:159
;LAYER:0
M107
G0 F3600 X55.9 Y33.363 Z0.3
;TYPE:SKIRT
G1 F1500 E0
G1 X57.179 Y31.751 E0.10266
G1 X58.419 Y30.683 E0.18431
G1 X60.055 Y29.768 E0.27783
G1 X62.062 Y29.313 E0.3805
G1 X186.708 Y29.314 E6.59911
G1 X189.154 Y29.971 E6.72547
G1 X190.835 Y31.139 E6.82759
G1 X192.217 Y32.573 E6.92695
G1 X193.343 Y34.737 E7.04865
G1 X193.56 Y36.206 E7.12274
G1 X193.609 Y103.276 E10.46887
G1 X192.891 Y105.373 E10.57946
G1 X192.102 Y106.682 E10.65571
G1 X190.686 Y108.208 E10.75957
G1 X189.746 Y108.801 E10.81502
G1 X188.283 Y109.431 E10.89449
G1 X187.729 Y109.588 E10.92321
G1 X189.154 Y109.971 E10.99683
G1 X190.835 Y111.139 E11.09895
G1 X192.217 Y112.573 E11.19831
G1 X193.343 Y114.737 E11.32002
G1 X193.56 Y116.206 E11.3941
G1 X193.609 Y182.838 E14.71838
G1 X193.244 Y184.616 E14.80894
G1 X192.107 Y186.791 E14.93138
G1 X190.55 Y188.281 E15.0389
G1 X188.933 Y189.267 E15.13339
G1 X186.715 Y189.863 E15.24797
G1 X62.096 Y189.863 E21.46524
G1 X60.07 Y189.409 E21.56882
G1 X58.445 Y188.511 E21.66145
G1 X57.109 Y187.368 E21.74917
G1 X55.815 Y185.577 E21.8594
G1 X55.063 Y183.162 E21.98559
G1 X55.062 Y116.015 E25.33557
G1 X55.9 Y113.363 E25.47433
G1 X57.179 Y111.751 E25.57699
G1 X58.419 Y110.683 E25.65863
G1 X60.055 Y109.768 E25.75215
G1 X60.877 Y109.582 E25.7942
G1 X59.738 Y109.282 E25.85296
G1 X58.309 Y108.361 E25.93778
G1 X57.236 Y107.491 E26.0067
G1 X55.876 Y105.779 E26.11578
G1 X55.063 Y103.193 E26.25102
G1 X55.062 Y36.015 E29.60255
G1 X55.9 Y33.363 E29.7413
G0 F3600 X56.259 Y33.554
G1 F1500 X57.469 Y32.029 E29.83843
G1 X58.65 Y31.012 E29.91618
G1 X60.2 Y30.145 E30.00479
G1 X62.106 Y29.713 E30.10229
G1 X186.656 Y29.714 E36.31611
G1 X188.982 Y30.339 E36.43627
G1 X190.577 Y31.447 E36.53317
G1 X191.887 Y32.807 E36.62737
G1 X192.957 Y34.862 E36.74296
G1 X193.164 Y36.264 E36.81367
G1 X193.209 Y103.21 E40.15362
G1 X192.528 Y105.199 E40.2585
G1 X191.778 Y106.443 E40.33097
G1 X190.428 Y107.898 E40.43
G1 X189.587 Y108.434 E40.47975
G1 X188.174 Y109.046 E40.55658
G1 X186.707 Y109.462 E40.63265
G1 X61.993 Y109.462 E46.85466
G1 X59.902 Y108.911 E46.96254
G1 X58.561 Y108.05 E47.04204
G1 X57.521 Y107.207 E47.10884
G1 X56.236 Y105.589 E47.21192
G1 X55.463 Y103.13 E47.34052
G1 X55.462 Y36.076 E50.68585
G1 X56.259 Y33.554 E50.81781
G0 F3600 X56.617 Y33.746
G1 F1500 X57.759 Y32.307 E50.90946
G1 X58.881 Y31.341 E50.98333
G1 X60.344 Y30.523 E51.06695
G1 X62.151 Y30.113 E51.1594
G1 X186.604 Y30.114 E57.36838
G1 X188.812 Y30.707 E57.48244
G1 X190.313 Y31.75 E57.57363
G1 X191.559 Y33.043 E57.66322
G1 X192.571 Y34.987 E57.77256
G1 X192.768 Y36.322 E57.83988
G1 X192.809 Y103.144 E61.17365
G1 X192.165 Y105.025 E61.27284
G1 X191.454 Y106.204 E61.34153
G1 X190.17 Y107.588 E61.43571
G1 X189.427 Y108.067 E61.47982
G1 X188.065 Y108.661 E61.55395
G1 X186.651 Y109.062 E61.62727
G1 X62.046 Y109.062 E67.84384
G1 X60.065 Y108.54 E67.94605
G1 X58.777 Y107.713 E68.02241
G1 X57.808 Y106.926 E68.08469
G1 X56.596 Y105.399 E68.18196
G1 X55.863 Y103.067 E68.30391
G1 X55.862 Y36.136 E71.64311
G1 X56.617 Y33.746 E71.76816
G0 F3600 X56.976 Y33.937
G1 F1500 X58.049 Y32.585 E71.85427
G1 X59.112 Y31.67 E71.92425
G1 X60.489 Y30.9 E72.00296
G1 X62.195 Y30.513 E72.09023
G1 X186.552 Y30.514 E78.29443
G1 X188.64 Y31.075 E78.40229
G1 X190.055 Y32.058 E78.48825
G1 X191.229 Y33.277 E78.57268
G1 X192.185 Y35.112 E78.67591
G1 X192.372 Y36.38 E78.73986
G1 X192.409 Y103.078 E82.06743
G1 X191.801 Y104.853 E82.16104
G1 X191.132 Y105.963 E82.2257
G1 X189.912 Y107.278 E82.31519
G1 X189.266 Y107.701 E82.35371
G1 X187.956 Y108.276 E82.42509
G1 X186.595 Y108.662 E82.49567
G1 X62.099 Y108.662 E88.7068
G1 X60.228 Y108.169 E88.80333
G1 X59.029 Y107.402 E88.87434
G1 X58.093 Y106.642 E88.93449
G1 X56.956 Y105.209 E89.02575
G1 X56.263 Y103.004 E89.14107
G1 X56.262 Y36.197 E92.47408
G1 X56.976 Y33.937 E92.59233
G0 F3600 X57.335 Y34.128
G1 F1500 X58.339 Y32.863 E92.6729
G1 X59.343 Y31.999 E92.73898
G1 X60.634 Y31.277 E92.81278
G1 X62.239 Y30.913 E92.89489
G1 X186.5 Y30.914 E99.09429
G1 X188.47 Y31.443 E99.19606
G1 X189.791 Y32.361 E99.27632
G1 X190.901 Y33.513 E99.35613
G1 X191.799 Y35.237 E99.45311
G1 X191.976 Y36.438 E99.51367
G1 X192.009 Y103.012 E102.83506
G1 X191.438 Y104.679 E102.92297
G1 X190.808 Y105.724 E102.98385
G1 X189.652 Y106.971 E103.06868
G1 X189.104 Y107.335 E103.10151
G1 X187.847 Y107.891 E103.17008
G1 X186.539 Y108.262 E103.23791
G1 X62.152 Y108.262 E109.4436
G1 X60.391 Y107.798 E109.53446
G1 X59.245 Y107.065 E109.60233
G1 X58.38 Y106.361 E109.65797
G1 X57.316 Y105.019 E109.74341
G1 X56.663 Y102.941 E109.85208
G1 X56.662 Y36.258 E113.17891
G1 X57.335 Y34.128 E113.29035
G0 F3600 X57.694 Y34.319
G1 F1500 X58.629 Y33.141 E113.36539
G1 X59.574 Y32.328 E113.42758
G1 X60.779 Y31.654 E113.49646
G1 X62.283 Y31.313 E113.5734
G1 X186.448 Y31.314 E119.76802
G1 X188.298 Y31.811 E119.86359
G1 X189.533 Y32.669 E119.93861
G1 X190.571 Y33.747 E120.01327
G1 X191.413 Y35.362 E120.10414
G1 X191.58 Y36.496 E120.16132
G1 X191.609 Y102.946 E123.47653
G1 X191.075 Y104.505 E123.55874
G1 X190.484 Y105.485 E123.61584
G1 X189.391 Y106.665 E123.69608
G1 X188.941 Y106.97 E123.7232
G1 X187.738 Y107.506 E123.78891
G1 X186.483 Y107.862 E123.85399
G1 X62.205 Y107.862 E130.05425
G1 X60.552 Y107.427 E130.13952
G1 X59.498 Y106.755 E130.20189
G1 X58.664 Y106.076 E130.25554
G1 X57.677 Y104.831 E130.33481
G1 X57.063 Y102.878 E130.43694
G1 X57.062 Y36.319 E133.75758
G1 X57.694 Y34.319 E133.86223
G0 F3600 X58.053 Y34.51
G1 F1500 X58.919 Y33.419 E133.93172
G1 X59.805 Y32.657 E133.99002
G1 X60.924 Y32.031 E134.05399
G1 X62.327 Y31.713 E134.12576
G1 X186.396 Y31.714 E140.31559
G1 X188.126 Y32.179 E140.40497
G1 X189.272 Y32.975 E140.47458
G1 X190.243 Y33.983 E140.54441
G1 X191.027 Y35.487 E140.62902
G1 X191.184 Y36.554 E140.68283
G1 X191.209 Y102.88 E143.99185
G1 X190.712 Y104.331 E144.06837
G1 X190.16 Y105.246 E144.12168
G1 X189.129 Y106.359 E144.19737
G1 X188.777 Y106.605 E144.21879
G1 X187.629 Y107.121 E144.28159
G1 X186.427 Y107.462 E144.34392
G1 X62.258 Y107.462 E150.53874
G1 X60.714 Y107.056 E150.61839
G1 X59.751 Y106.445 E150.67529
G1 X58.948 Y105.791 E150.72695
G1 X58.038 Y104.643 E150.80004
G1 X57.463 Y102.815 E150.89564
G1 X57.462 Y36.38 E154.2101
G1 X58.053 Y34.51 E154.30794
G0 F3600 X58.412 Y34.701
G1 F1500 X59.209 Y33.697 E154.3719
G1 X60.036 Y32.986 E154.42631
G1 X61.069 Y32.408 E154.48536
G1 X62.371 Y32.113 E154.55197
G1 X186.344 Y32.114 E160.73701
G1 X187.956 Y32.547 E160.82028
G1 X189.008 Y33.278 E160.88419
G1 X189.915 Y34.219 E160.94939
G1 X190.641 Y35.612 E161.02776
G1 X190.788 Y36.612 E161.07819
G1 X190.809 Y102.814 E164.38102
G1 X190.348 Y104.161 E164.45205
G1 X189.839 Y105.004 E164.50118
G1 X188.863 Y106.058 E164.57285
G1 X188.612 Y106.241 E164.58834
G1 X187.52 Y106.736 E164.64816
G1 X186.371 Y107.062 E164.70775
G1 X62.311 Y107.062 E170.89712
G1 X60.874 Y106.684 E170.97126
G1 X60.004 Y106.135 E171.02258
G1 X59.232 Y105.506 E171.07226
G1 X58.399 Y104.455 E171.13917
G1 X57.863 Y102.752 E171.22824
G1 X57.862 Y36.441 E174.53651
G1 X58.412 Y34.701 E174.62755
G0 F3600 X58.771 Y34.892
G1 F1500 X59.499 Y33.975 E174.68596
G1 X60.267 Y33.315 E174.73648
G1 X61.214 Y32.785 E174.79063
G1 X62.415 Y32.513 E174.85206
G1 X186.292 Y32.514 E181.03231
G1 X187.784 Y32.915 E181.10939
G1 X188.747 Y33.584 E181.16789
G1 X189.587 Y34.455 E181.22826
G1 X190.255 Y35.737 E181.30038
G1 X190.392 Y36.67 E181.34743
G1 X190.409 Y102.748 E184.64407
G1 X189.984 Y103.989 E184.70952
G1 X189.517 Y104.764 E184.75466
G1 X188.57 Y105.786 E184.82417
G1 X188.445 Y105.877 E184.83188
G1 X187.411 Y106.351 E184.88863
G1 X186.315 Y106.662 E184.94547
G1 X62.364 Y106.662 E191.12941
G1 X61.034 Y106.312 E191.19802
G1 X60.257 Y105.825 E191.24377
G1 X59.518 Y105.223 E191.29133
G1 X58.759 Y104.265 E191.3523
G1 X58.263 Y102.689 E191.43473
G1 X58.262 Y36.502 E194.73682
G1 X58.771 Y34.892 E194.82106
G0 F3600 X59.13 Y35.083
G1 F1500 X59.789 Y34.253 E194.87393
G1 X60.498 Y33.644 E194.92056
G1 X61.359 Y33.162 E194.96979
G1 X62.459 Y32.913 E195.02606
G1 X186.24 Y32.914 E201.20152
G1 X187.614 Y33.283 E201.27249
G1 X188.483 Y33.887 E201.32529
G1 X189.259 Y34.691 E201.38104
G1 X189.87 Y35.864 E201.44702
G1 X189.992 Y36.67 E201.48769
G1 X190.009 Y102.682 E204.78105
G1 X189.62 Y103.818 E204.84095
G1 X189.195 Y104.524 E204.88206
G1 X188.277 Y105.514 E204.94942
G1 X187.302 Y105.966 E205.00304
G1 X186.259 Y106.262 E205.05713
G1 X62.417 Y106.262 E211.23563
G1 X61.195 Y105.941 E211.29867
G1 X60.47 Y105.486 E211.34137
G1 X59.805 Y104.941 E211.38426
G1 X59.119 Y104.075 E211.43938
G1 X58.663 Y102.626 E211.51517
G1 X58.662 Y36.563 E214.81106
G1 X59.13 Y35.083 E214.88851
G0 F3600 X59.489 Y35.274
G1 F1500 X60.076 Y34.534 E214.93563
G1 X60.732 Y33.971 E214.97876
G1 X61.504 Y33.539 E215.02289
G1 X62.503 Y33.313 E215.07399
G1 X186.188 Y33.314 E221.24466
G1 X187.444 Y33.651 E221.30954
G1 X188.219 Y34.19 E221.35664
G1 X188.931 Y34.927 E221.40776
G1 X189.484 Y35.989 E221.4675
G1 X189.596 Y36.73 E221.50489
G1 X189.609 Y102.616 E224.79195
G1 X189.256 Y103.647 E224.84632
G1 X188.873 Y104.284 E224.8834
G1 X188.038 Y105.184 E224.94465
G1 X187.193 Y105.581 E224.99123
G1 X186.203 Y105.862 E225.04257
G1 X62.47 Y105.862 E231.21564
G1 X61.356 Y105.569 E231.27311
G1 X60.724 Y105.177 E231.31021
G1 X60.092 Y104.659 E231.35098
G1 X59.479 Y103.885 E231.40024
G1 X59.063 Y102.563 E231.46938
G1 X59.062 Y36.624 E234.75909
G1 X59.489 Y35.274 E234.82973
G0 F3600 X59.848 Y35.466
G1 F1500 X60.366 Y34.812 E234.87135
G1 X60.963 Y34.3 E234.91059
G1 X61.649 Y33.916 E234.94981
G1 X62.547 Y33.713 E234.99574
G1 X186.137 Y33.714 E241.16168
G1 X187.272 Y34.018 E241.2203
G1 X187.957 Y34.495 E241.26194
G1 X188.603 Y35.163 E241.3083
G1 X189.098 Y36.114 E241.36179
G1 X189.2 Y36.79 E241.3959
G1 X189.209 Y102.55 E244.67668
G1 X188.892 Y103.476 E244.72551
G1 X188.551 Y104.044 E244.75856
G1 X187.799 Y104.854 E244.8137
G1 X187.084 Y105.196 E244.85324
G1 X186.147 Y105.462 E244.90184
G1 X62.523 Y105.462 E251.06946
G1 X61.515 Y105.197 E251.12146
G1 X60.978 Y104.868 E251.15288
G1 X60.379 Y104.377 E251.19152
G1 X59.839 Y103.695 E251.23492
G1 X59.463 Y102.5 E251.29742
G1 X59.462 Y36.685 E254.58095
G1 X59.848 Y35.466 E254.64474
G0 F3600 X60.207 Y35.658
G1 F1500 X60.654 Y35.093 E254.68068
G1 X61.197 Y34.627 E254.71638
G1 X61.794 Y34.293 E254.75051
G1 X62.591 Y34.113 E254.79127
G1 X186.086 Y34.114 E260.95246
G1 X187.1 Y34.385 E261.00483
G1 X187.698 Y34.802 E261.0412
G1 X188.274 Y35.397 E261.08252
G1 X188.712 Y36.239 E261.12987
G1 X188.804 Y36.85 E261.16069
G1 X188.809 Y102.484 E264.43519
G1 X188.528 Y103.305 E264.47848
G1 X188.229 Y103.804 E264.5075
G1 X187.559 Y104.525 E264.55661
G1 X186.911 Y104.835 E264.59244
G1 X186.093 Y105.062 E264.6348
G1 X62.575 Y105.062 E270.79713
G1 X61.672 Y104.825 E270.84371
G1 X61.232 Y104.559 E270.86936
G1 X60.666 Y104.095 E270.90588
G1 X60.199 Y103.505 E270.94342
G1 X59.863 Y102.437 E270.99927
G1 X59.862 Y36.746 E274.27661
G1 X60.207 Y35.658 E274.33355
G0 F3600 X60.566 Y35.85
G1 F1500 X60.945 Y35.371 E274.36403
G1 X61.428 Y34.956 E274.3958
G1 X61.939 Y34.67 E274.42501
G1 X62.635 Y34.513 E274.46061
G1 X186.035 Y34.514 E280.61706
G1 X186.929 Y34.753 E280.66323
G1 X187.438 Y35.107 E280.69416
G1 X187.946 Y35.632 E280.73061
G1 X188.326 Y36.363 E280.77171
G1 X188.408 Y36.909 E280.79926
G1 X188.409 Y102.418 E284.06751
G1 X188.163 Y103.136 E284.10538
G1 X187.908 Y103.562 E284.13015
G1 X187.319 Y104.196 E284.17332
G1 X186.738 Y104.474 E284.20546
G1 X186.039 Y104.662 E284.24157
G1 X62.626 Y104.662 E290.39867
G1 X61.829 Y104.453 E290.43977
G1 X61.486 Y104.25 E290.45966
G1 X60.953 Y103.813 E290.49405
G1 X60.559 Y103.315 E290.52573
G1 X60.263 Y102.374 E290.57494
G1 X60.262 Y36.807 E293.84609
G1 X60.566 Y35.85 E293.89619
G0 F3600 X60.925 Y36.042
G1 F1500 X61.236 Y35.649 E293.92119
G1 X61.657 Y35.287 E293.94889
G1 X62.085 Y35.047 E293.97337
G1 X62.679 Y34.913 E294.00375
G1 X185.984 Y34.914 E300.15546
G1 X186.757 Y35.121 E300.19539
G1 X187.151 Y35.385 E300.21905
G1 X187.618 Y35.867 E300.25253
G1 X187.94 Y36.488 E300.28743
G1 X188.008 Y36.909 E300.30871
G1 X188.009 Y102.352 E303.57367
G1 X187.785 Y103.006 E303.60816
G1 X187.615 Y103.29 E303.62467
G1 X187.078 Y103.868 E303.66404
G1 X186.634 Y104.088 E303.68876
G1 X185.987 Y104.262 E303.72218
G1 X62.677 Y104.262 E309.87414
G1 X61.986 Y104.081 E309.90978
G1 X61.74 Y103.941 E309.9239
G1 X61.24 Y103.531 E309.95616
G1 X60.919 Y103.125 E309.98198
G1 X60.663 Y102.311 E310.02455
G1 X60.662 Y36.868 E313.28952
G1 X60.925 Y36.042 E313.33277
G0 F3600 X61.283 Y36.234
G1 F1500 X61.497 Y35.952 E313.35043
G1 X61.918 Y35.59 E313.37813
G1 X62.23 Y35.424 E313.39576
G1 X62.723 Y35.313 E313.42097
G1 X185.933 Y35.314 E319.56794
G1 X186.588 Y35.489 E319.60177
G1 X186.864 Y35.664 E319.61807
G1 X187.291 Y36.104 E319.64866
G1 X187.555 Y36.614 E319.67731
G1 X187.608 Y36.909 E319.69227
G1 X187.609 Y102.286 E322.95394
G1 X187.407 Y102.876 E322.98505
G1 X187.322 Y103.018 E322.99331
G1 X186.835 Y103.542 E323.029
G1 X186.53 Y103.702 E323.04618
G1 X185.935 Y103.862 E323.07692
G1 X62.728 Y103.862 E329.22374
G1 X62.137 Y103.707 E329.25422
G1 X61.994 Y103.632 E329.26228
G1 X61.494 Y103.222 E329.29454
G1 X61.279 Y102.936 E329.31239
G1 X61.063 Y102.248 E329.34837
G1 X61.062 Y36.929 E332.60714
G1 X61.283 Y36.234 E332.64353
G0 F3600 X62.019 Y36.558
G1 F1500 X62.44 Y36.196 E332.67123
G1 X62.723 Y36.113 E332.68594
G1 X185.882 Y36.114 E338.83037
G1 X186.31 Y36.242 E338.85266
G1 X186.659 Y36.577 E338.87679
G1 X186.808 Y36.909 E338.89495
G1 X186.809 Y102.22 E342.15333
G1 X186.658 Y102.597 E342.17359
G1 X186.311 Y102.933 E342.19769
G1 X185.883 Y103.062 E342.21999
G1 X62.728 Y103.062 E348.36422
G1 X62.375 Y102.944 E348.38279
G1 X62.018 Y102.618 E348.4069
G1 X61.863 Y102.185 E348.42985
G1 X61.862 Y36.99 E351.68244
G1 X62.019 Y36.558 E351.70537
G0 F3600 X61.643 Y36.421
G1 F1500 X61.758 Y36.255 E351.71545
G1 X62.179 Y35.893 E351.74315
G1 X62.327 Y35.812 E351.75157
G1 X62.723 Y35.713 E351.77193
G1 X185.882 Y35.714 E357.91636
G1 X186.425 Y35.859 E357.9444
G1 X186.587 Y35.953 E357.95374
G1 X186.936 Y36.288 E357.97788
G1 X187.173 Y36.745 E358.00356
G1 X187.208 Y36.909 E358.01193
G1 X187.209 Y102.22 E361.27031
G1 X187.029 Y102.746 E361.29804
G1 X186.589 Y103.22 E361.33031
G1 X186.426 Y103.316 E361.33975
G1 X185.883 Y103.462 E361.3678
G1 X62.728 Y103.462 E367.51203
G1 X62.248 Y103.323 E367.53696
G1 X61.748 Y102.913 E367.56922
G1 X61.641 Y102.753 E367.57882
G1 X61.463 Y102.185 E367.60852
G1 X61.462 Y36.99 E370.86111
G1 X61.643 Y36.421 E370.8909
G1 F1500 E364.3909
G0 F3600 X61.398 Y36.863
G0 X61.399 Y102.31
G0 X62.151 Y110.113
G1 F1500 E370.8909
G1 X60.344 Y110.523 E370.98334
G1 X58.881 Y111.341 E371.06696
G1 X57.759 Y112.307 E371.14083
G1 X56.617 Y113.746 E371.23248
G1 X55.862 Y116.136 E371.35753
G1 X55.863 Y183.04 E374.69538
G1 X56.541 Y185.217 E374.80914
G1 X57.699 Y186.82 E374.9078
G1 X58.904 Y187.851 E374.98692
